202404-ahaslides-april/assets/images/icon-download.svg

<svg width="14" height="16" viewBox="0 0 14 16" xmlns="http://www.w3.org/2000/svg">
<path d="M7.4475 11.702L11.0345 8.14171C11.4114 7.76708 11.1465 7.12385 10.6153 7.12385H8.19043V1.07214C8.19043 0.743268 7.92406 0.476899 7.59519 0.476899H6.40471C6.07584 0.476899 5.80947 0.743268 5.80947 1.07214V7.12385H3.38462C2.85337 7.12385 2.58849 7.76708 2.9661 8.14171L6.55315 11.702C6.80055 11.9479 7.2001 11.9479 7.4475 11.702Z" fill="#525F7F"/>
<path d="M0.333252 13.8738C0.333252 13.3478 0.759647 12.9214 1.28563 12.9214H12.7142C13.2402 12.9214 13.6666 13.3478 13.6666 13.8738V14.5149C13.6666 15.0409 13.2402 15.4673 12.7142 15.4673H1.28563C0.759648 15.4673 0.333252 15.0409 0.333252 14.5149V13.8738Z" fill="#525F7F"/>
</svg>

<svg xmlns="http://www.w3.org/2000/svg" width="14" height="16" viewBox="0 0 14 16">
  <path fill="#525F7F" d="m7.447 11.702 3.587-3.56a.595.595 0 0 0-.419-1.018H8.19V1.072a.595.595 0 0 0-.595-.595h-1.19a.595.595 0 0 0-.596.595v6.052H3.385a.595.595 0 0 0-.419 1.018l3.587 3.56a.634.634 0 0 0 .894 0ZM.333 13.874c0-.526.427-.953.953-.953h11.428c.526 0 .953.427.953.953v.64a.952.952 0 0 1-.953.953H1.286a.952.952 0 0 1-.953-.952v-.641Z"/>
</svg>
